X: 307
T:Dame or sui trais
C:Adam de la Halle
F:https://gallica.bnf.fr/ark:/12148/btv1b6001348v/f74.item
F:https://archive.org/details/oeuvrescompltes00cousgoog/page/n303
Z:Ali Corbin <ali.corbin:gmail.com>
N: (condensed)
M:3/4
L:1/4
Q:1/4=136
K:F Lydian
%
%%MIDI program 1       42 Cello
%%MIDI program 2       72 piccolo
%%MIDI program 3       70 bassoon
V:1 clef=treble
V:2 clef=treble_8
V:3 clef=treble_8
%
[V:1 ][K:C] F3            | E3  | F (DE)|  F3              ||       E2      (3E/D/C/|(E C) (E |G2)  z ||
[V:2 ][K:C]((3:2:2C/B,A,2)| B,3 | C (ED)|  C ((3:2:2C/B,A,)||((3:2:2A,/G,     F,2)  |(E,F,)(A,|G,2) z ||
[V:3 ][K:F] F,3           | G,3 | F, D,2|  F,3             ||       A,2 (3:2:2A,B,/ | C2   (C |D2)  z ||
w:  1.6.14.~Dame,           or   sui tra-  ïs               2.7.15.~Par       l'o-*   coi-  son*
w:  5.~~~~~~~~~Et           par  vo  douch ris			    ~          ~       ~    ~	
w: 10.~~~~~~~Car            il   est as-   sis               11.~~~~~~Sur       cuer*   fé-   lon*
%
[V:1 ][K:C]  A ((3:2:2G/FE)| F   G2  |       A3    || ((3:2:2F/ E   D)((3:2:2FE/)|((3:2:2D/ C  B,2)| C3  ||
[V:2 ][K:C]  A,       B,2  | C   D2  |((3:2:2E/DC2)|| ((3:2:2C/ B,  A,2)         |((3:2:2G,/F, E,2)| F,3 ||
[V:3 ][K:F]  E       (DG,) | F,  B,2 |       A,3   || ((3:2:2F,/G,) A,2          |((3:2:2B,/A, G,2)| F,3 ||
w:   3.8.16.~De       vos*   iex qui         sont    4.9.17.~Pri-*  vé                   lar-**      ron.
w:   12.~~~~Dont     j'a-*  pel vo          vis      13.~~~~~~De*    tra-                 ï-**        son.
W:
W:Dame, or sui traïs  % Lady, but I am betrayed 
W:Par l'ocoison       % By the chance 
W:De vos iex qui sont % Of your eyes, which are 
W:Privé larron.       % A deprived robber 
W:
W:Et par vo douch ris % And by your sweet lips??? 		
W:
W:
W:Dame, or sui traïs 
W:
W:Car il est assis    % For it sat 
W:Sur cuer félon      % On the cruel heart 
W:Dont j'apel vo vis  % By which I call your face 
W:De traïson.         % Of treachery 
W:
W:Dame, or sui traïs 
W:Par l'ocoison
W:De vos iex qui sont 
W:Privé larron.


